Sources/FrostedUI/Resources/Icons.xcassets/lilstNumber32.imageset/lilst-number-32.svg

<svg width="32" height="32" viewBox="0 0 32 32" fill="none" xmlns="http://www.w3.org/2000/svg" data-fui-icon="true">
  <path
    d="M24.333 4.25C26.22 4.25 27.75 5.78003 27.75 7.66699V24.333C27.75 26.22 26.22 27.75 24.333 27.75H7.66699C5.78003 27.75 4.25 26.22 4.25 24.333V7.66699C4.25 5.78002 5.78002 4.25 7.66699 4.25H24.333ZM7.66699 5.75C6.60845 5.75 5.75 6.60845 5.75 7.66699V24.333C5.75 25.3916 6.60844 26.25 7.66699 26.25H24.333C25.3916 26.25 26.25 25.3916 26.25 24.333V7.66699C26.25 6.60844 25.3916 5.75 24.333 5.75H7.66699ZM10.6738 16.625C11.7212 16.625 12.7596 17.3818 12.7598 18.5322C12.7597 19.182 12.4357 19.6634 12.0732 20.0049C11.7273 20.3307 11.2887 20.5842 10.9375 20.7832C10.933 20.7857 10.9283 20.7885 10.9238 20.791H12.25C12.664 20.791 12.9997 21.1271 13 21.541C13 21.9552 12.6642 22.291 12.25 22.291H9.125C8.71079 22.291 8.375 21.9552 8.375 21.541C8.37525 20.9011 8.75586 20.4593 9.09766 20.1768C9.43174 19.9006 9.86528 19.6656 10.1973 19.4775C10.5671 19.268 10.8501 19.0966 11.0449 18.9131C11.2228 18.7454 11.2598 18.632 11.2598 18.5322C11.2597 18.4576 11.2261 18.3662 11.127 18.2803C11.0262 18.1931 10.868 18.125 10.6738 18.125C10.4904 18.1251 10.2891 18.1993 10.1055 18.3066C10.0192 18.3571 9.94854 18.4074 9.90137 18.4443C9.87818 18.4625 9.861 18.4772 9.85156 18.4854L9.84668 18.4883C9.54517 18.7721 9.07106 18.7584 8.78711 18.457C8.50344 18.1555 8.51796 17.6804 8.81934 17.3965L8.82031 17.3955L8.82227 17.3945C8.82338 17.3935 8.8248 17.3919 8.82617 17.3906L8.86914 17.3516C8.89553 17.3287 8.93204 17.2985 8.97656 17.2637C9.06543 17.1941 9.19247 17.103 9.34863 17.0117C9.65079 16.8351 10.1199 16.6251 10.6738 16.625ZM22.875 18.708C23.2891 18.708 23.6248 19.0439 23.625 19.458C23.625 19.8722 23.2892 20.208 22.875 20.208H15.792C15.3778 20.208 15.042 19.8722 15.042 19.458C15.0422 19.0439 15.3779 18.708 15.792 18.708H22.875ZM9.84766 18.4893H9.84668V18.4902L9.8457 18.4912L9.84375 18.4922L9.84668 18.4883L9.84766 18.4893ZM10.8672 8.79004C11.0813 8.6807 11.3377 8.68005 11.5547 8.79297C11.8026 8.92208 11.9579 9.1785 11.958 9.45801V13.625C11.9578 14.0391 11.6221 14.375 11.208 14.375C10.7941 14.3748 10.4582 14.039 10.458 13.625V10.8984L9.55469 11.5312C9.21547 11.7683 8.74821 11.6856 8.51074 11.3467C8.27338 11.0074 8.35604 10.5392 8.69531 10.3018L10.7783 8.84375L10.8672 8.79004ZM22.875 10.791C23.289 10.791 23.6247 11.1271 23.625 11.541C23.625 11.9552 23.2892 12.291 22.875 12.291H15.792C15.3778 12.291 15.042 11.9552 15.042 11.541C15.0423 11.1271 15.378 10.791 15.792 10.791H22.875Z"
    fill="currentColor"
  />
</svg>

<svg xmlns="http://www.w3.org/2000/svg" width="32" height="32" fill="none" data-fui-icon="true" viewBox="0 0 32 32"><path fill="currentColor" d="M24.333 4.25a3.417 3.417 0 0 1 3.417 3.417v16.666a3.417 3.417 0 0 1-3.417 3.417H7.667a3.417 3.417 0 0 1-3.417-3.417V7.667A3.417 3.417 0 0 1 7.667 4.25zM7.667 5.75A1.917 1.917 0 0 0 5.75 7.667v16.666c0 1.059.858 1.917 1.917 1.917h16.666a1.917 1.917 0 0 0 1.917-1.917V7.667a1.917 1.917 0 0 0-1.917-1.917zm3.007 10.875c1.047 0 2.086.757 2.086 1.907 0 .65-.324 1.131-.687 1.473-.346.326-.784.58-1.136.778l-.013.008h1.326a.75.75 0 0 1 0 1.5H9.125a.75.75 0 0 1-.75-.75c0-.64.38-1.082.723-1.364.334-.276.767-.511 1.1-.7.37-.209.652-.38.847-.564.178-.168.215-.281.215-.38 0-.075-.034-.167-.133-.253a.7.7 0 0 0-.453-.155c-.184 0-.385.074-.569.182a2 2 0 0 0-.253.178l-.005.003a.75.75 0 1 1-1.028-1.091l.001-.002h.002l.004-.004.043-.04.108-.087c.088-.07.215-.161.372-.252.302-.177.77-.387 1.325-.387m12.201 2.083a.75.75 0 0 1 0 1.5h-7.083a.75.75 0 0 1 0-1.5zm-13.027-.219h-.001v.001l-.001.001-.002.001.003-.004zm1.02-9.699a.75.75 0 0 1 1.09.668v4.167a.75.75 0 0 1-1.5 0v-2.727l-.903.633a.75.75 0 0 1-.86-1.23l2.083-1.457zm12.007 2.001a.75.75 0 0 1 0 1.5h-7.083a.75.75 0 0 1 0-1.5z"/></svg>
